dist/svg/root-cause.svg

<!-- Generated by Trend Micro Style Portal -->
<svg version="1.1" xmlns="http://www.w3.org/2000/svg" width="16" height="16" viewBox="0 0 16 16">
  <title>root-cause</title>
  <path fill="rgb(34,34,34)" d="M5 4.5c0 0.8-0.7 1.5-1.5 1.5s-1.5-0.7-1.5-1.5c0-0.8 0.7-1.5 1.5-1.5s1.5 0.7 1.5 1.5zM16 12c0 1.1-0.9 2-2 2-1 0-1.8-0.7-2-1.6-3-0.4-5.4-2.5-6.2-5.3-0.6 0.6-1.4 0.9-2.3 0.9-1.9 0-3.5-1.6-3.5-3.5s1.6-3.5 3.5-3.5c1.8 0 3.2 1.3 3.5 3h5.1c0.2-0.9 1-1.5 1.9-1.5 1.1 0 2 0.9 2 2s-0.9 2-2 2c-0.9 0-1.7-0.6-1.9-1.5h-5.1c-0.1 0.4-0.2 0.8-0.4 1.1 0.5 2.8 2.7 4.9 5.5 5.3 0.2-0.8 1-1.4 1.9-1.4 1.1 0 2 0.9 2 2zM6 4.5c0-1.4-1.1-2.5-2.5-2.5s-2.5 1.1-2.5 2.5c0 1.4 1.1 2.5 2.5 2.5s2.5-1.1 2.5-2.5z"></path>
</svg>

<svg width="16" height="16" viewBox="0 0 16 16" fill="rgb(34, 34, 34)" xmlns="http://www.w3.org/2000/svg"><title>root-cause</title><path d="M5 4.5C5 5.3 4.3 6 3.5 6C2.7 6 2 5.3 2 4.5C2 3.7 2.7 3 3.5 3C4.3 3 5 3.7 5 4.5ZM16 12C16 13.1 15.1 14 14 14C13 14 12.2 13.3 12 12.4C9 12 6.6 9.9 5.8 7.1C5.2 7.7 4.4 8 3.5 8C1.6 8 0 6.4 0 4.5C0 2.6 1.6 1 3.5 1C5.3 1 6.7 2.3 7 4H12.1C12.3 3.1 13.1 2.5 14 2.5C15.1 2.5 16 3.4 16 4.5C16 5.6 15.1 6.5 14 6.5C13.1 6.5 12.3 5.9 12.1 5H7C6.9 5.4 6.8 5.8 6.6 6.1C7.1 8.9 9.3 11 12.1 11.4C12.3 10.6 13.1 10 14 10C15.1 10 16 10.9 16 12ZM6 4.5C6 3.1 4.9 2 3.5 2C2.1 2 1 3.1 1 4.5C1 5.9 2.1 7 3.5 7C4.9 7 6 5.9 6 4.5Z" fill="rgb(34, 34, 34)" fill-opacity="1.00"/></svg>
